HelpDesk_TicketSystem/ClientApp/src/assets/images/vector-4.svg

<svg width="384" height="271" viewBox="0 0 384 271" fill="none" xmlns="http://www.w3.org/2000/svg">
<path d="M270.805 240.226C271.099 240.344 271.418 240.411 271.743 240.425C272.068 240.439 272.394 240.399 272.701 240.307C273.008 240.215 273.29 240.074 273.532 239.89C273.773 239.707 273.97 239.486 274.109 239.239C274.249 238.991 274.33 238.724 274.346 238.451C274.363 238.177 274.315 237.904 274.206 237.647C274.097 237.389 273.928 237.152 273.71 236.949C273.491 236.746 273.227 236.581 272.933 236.464C271.813 236.087 270.245 236.37 269.573 237.498C269.348 238.533 269.797 239.662 270.805 240.32V240.226ZM126.294 153.685C127.414 154.155 128.982 153.779 129.654 152.744C130.103 151.803 129.654 150.487 128.422 149.922C127.302 149.546 125.734 149.828 125.061 150.957C124.613 151.898 125.061 153.214 126.294 153.779V153.685ZM226.219 144.748C226.803 144.924 227.444 144.908 228.015 144.705C228.585 144.501 229.043 144.124 229.298 143.65C229.552 143.175 229.584 142.637 229.387 142.143C229.191 141.649 228.779 141.236 228.236 140.986C227.115 140.515 225.547 140.892 224.875 141.926C224.427 142.867 224.875 144.184 226.219 144.748ZM184.658 208.808C185.779 209.184 187.235 208.902 187.907 207.773C188.355 206.833 187.907 205.516 186.675 204.951C185.554 204.575 183.986 204.951 183.314 206.08C182.866 207.021 183.314 208.055 184.658 208.808ZM128.422 197.802C129.542 198.178 131.111 197.802 131.783 196.767C132.231 195.827 131.783 194.51 130.551 193.945C129.43 193.569 127.862 193.945 127.19 194.98C126.966 196.015 127.302 197.332 128.422 197.802ZM38.915 122.549C39.5092 122.786 40.1912 122.815 40.811 122.63C41.4307 122.444 41.9375 122.06 42.2197 121.561C42.502 121.062 42.5366 120.489 42.316 119.969C42.0954 119.449 41.6377 119.023 41.0435 118.786C40.4492 118.549 39.7672 118.52 39.1475 118.705C38.5277 118.89 38.021 119.275 37.7387 119.774C37.4565 120.273 37.4219 120.845 37.6425 121.366C37.863 121.886 38.3208 122.312 38.915 122.549ZM225.547 46.2605C226.667 46.6368 228.236 46.2605 228.908 45.2258C229.356 44.2851 228.908 42.9682 227.563 42.4038C226.443 42.0275 224.987 42.4038 224.315 43.5326C223.867 44.4733 224.539 45.6021 225.547 46.2605ZM61.0958 80.5008C61.7679 80.783 62.216 80.689 63.0002 80.4068C63.7843 80.0305 64.2324 79.6542 64.6805 78.9017C66.4729 75.9856 68.3773 73.4458 70.2817 70.4357C70.9539 69.2128 70.7298 67.6137 69.3855 67.1434C68.0413 66.673 66.5849 67.3315 65.8008 68.7425C63.8964 71.6586 62.216 74.3865 60.1996 77.2085L59.9755 77.3966C59.3034 78.7136 59.9755 80.1246 61.0958 80.5008Z" fill="#C44E32"/>
<path d="M58.0711 73.2577L63.8964 75.5153C64.7926 75.7975 65.6888 76.1738 66.697 76.7382L68.8254 77.7729C69.5768 78.0141 70.3237 78.265 71.0659 78.5255C71.626 78.5255 72.2982 78.2433 72.8583 77.7729C73.4184 77.3026 73.5304 76.8323 73.4184 76.1738C73.4184 75.7035 73.1944 75.2331 72.6343 74.7628C72.0741 74.2925 71.402 74.0103 70.8419 73.634L69.2735 72.9755C68.3773 72.6933 67.5932 72.0349 66.697 71.7527L60.6477 69.4951C59.5274 69.0247 58.0711 69.401 57.399 70.4357C56.2787 71.3764 56.7268 72.7874 58.0711 73.2577ZM51.9098 12.1143C52.2459 12.2084 52.806 12.2084 52.806 12.0202C52.918 11.8321 52.918 11.3618 52.806 11.2677L51.7978 11.3618C51.7978 11.5499 51.7978 12.0202 52.0218 12.1143H51.9098ZM61.5439 33.4675C61.7679 33.5615 62.328 33.5615 62.4401 33.4675C62.4401 33.1853 62.4401 32.7149 62.216 32.6209C61.992 32.6209 61.5439 32.6209 61.4319 32.809V33.4675H61.5439ZM0.154694 27.7294C0.378743 27.8235 0.938858 27.7294 1.05088 27.6353L0.938859 26.8828L0.0426636 26.9769L0.154694 27.7294ZM0.826837 54.8206C1.05089 54.9147 1.611 54.8206 1.72302 54.7266C1.72302 54.5384 1.72303 54.0681 1.49898 53.974L0.714815 54.0681C0.602791 54.2562 0.602791 54.7266 0.714815 54.8206H0.826837ZM259.602 223.859C261.171 224.517 262.963 224.047 263.635 222.73C264.419 221.413 263.859 219.908 262.291 219.249C260.835 218.685 258.93 219.061 258.258 220.378C257.474 221.695 258.034 223.2 259.602 223.859ZM41.6036 19.8278C42.2757 20.0159 42.9479 19.8278 43.284 19.2634C43.62 18.699 43.284 18.1346 42.7238 17.9464C42.0517 17.6642 41.3795 17.9464 41.0435 18.4168C40.7074 18.9812 41.1555 19.6396 41.6036 19.8278ZM163.934 85.5805C164.494 85.8627 165.054 85.5805 165.502 85.1101C165.726 84.5457 165.502 83.9813 164.83 83.6991C164.158 83.4169 163.486 83.6992 163.262 84.2635C162.926 84.8279 163.262 85.2983 163.822 85.5805H163.934ZM289.401 232.889C290.209 233.203 291.083 233.379 291.973 233.407C292.863 233.435 293.751 233.315 294.585 233.052C295.418 232.789 296.182 232.39 296.83 231.878C297.479 231.366 298 230.75 298.363 230.067C299.931 227.245 298.811 223.953 295.226 222.542C294.425 222.225 293.557 222.044 292.672 222.009C291.787 221.975 290.902 222.087 290.07 222.341C289.237 222.594 288.472 222.984 287.819 223.486C287.166 223.989 286.637 224.595 286.264 225.27C284.92 228.092 286.04 231.572 289.401 232.795V232.889ZM370.954 259.228C372.747 259.98 374.875 259.416 375.771 257.723C376.556 256.218 375.995 254.43 373.979 253.584C373.534 253.399 373.048 253.293 372.551 253.274C372.055 253.255 371.559 253.323 371.096 253.473C370.632 253.624 370.211 253.853 369.859 254.148C369.507 254.442 369.231 254.794 369.05 255.183C368.49 256.782 369.274 258.381 370.954 259.228ZM270.133 148.982L270.357 149.922C270.581 150.487 271.029 151.145 271.701 151.615L273.269 152.556L274.726 153.685C275.846 154.343 276.966 155.096 277.862 155.848L280.775 157.73C281.447 158.012 282.007 158.482 282.679 158.859L284.696 159.987C285.812 160.638 286.971 161.235 288.169 161.775C289.045 162.174 290.041 162.351 291.036 162.284C292.03 162.217 292.98 161.91 293.77 161.398C294.778 160.74 295.114 160.364 295.674 159.517C296.122 158.953 296.234 158.294 296.458 157.636C296.64 157.147 296.752 156.642 296.794 156.131V151.521L296.906 150.298V146.442C296.906 145.313 296.906 144.278 296.682 143.149L296.57 141.644C296.458 141.08 296.346 140.516 296.01 139.951C295.674 139.199 295.114 138.54 294.33 137.976C293.573 137.401 292.643 137.01 291.641 136.847C290.521 136.753 289.513 136.847 288.505 137.129C287.496 137.411 286.6 137.882 285.592 138.258L283.576 139.387L282.455 139.951L281.447 140.516L279.095 141.456L277.414 142.021C276.827 142.226 276.264 142.478 275.734 142.773L275.51 142.961L274.726 143.338L274.166 143.714L273.045 144.372L271.701 145.501L271.365 145.877C271.015 146.241 270.75 146.655 270.581 147.1V146.912L270.133 148.135V149.076V148.982ZM287.72 153.403L285.592 152.086C283.869 150.937 282.188 149.745 280.551 148.511L280.663 148.417L282.231 147.853L284.024 147.194L286.712 145.971L288.281 145.031L288.729 144.937V148.605L288.841 150.016V154.061L287.72 153.403Z" fill="#C44E32"/>
</svg>

<svg xmlns="http://www.w3.org/2000/svg" width="384" height="271" fill="none"><path fill="#C44E32" d="M270.805 240.226a2.912 2.912 0 0 0 1.896.081c.307-.092.589-.233.831-.417.241-.183.438-.404.577-.651a1.771 1.771 0 0 0 .097-1.592 2.047 2.047 0 0 0-.496-.698 2.503 2.503 0 0 0-.777-.485c-1.12-.377-2.688-.094-3.36 1.034-.225 1.035.224 2.164 1.232 2.822v-.094Zm-144.511-86.541c1.12.47 2.688.094 3.36-.941.449-.941 0-2.257-1.232-2.822-1.12-.376-2.688-.094-3.361 1.035-.448.941 0 2.257 1.233 2.822v-.094Zm99.925-8.937c.584.176 1.225.16 1.796-.043.57-.204 1.028-.581 1.283-1.055a1.768 1.768 0 0 0 .089-1.507c-.196-.494-.608-.907-1.151-1.157-1.121-.471-2.689-.094-3.361.94-.448.941 0 2.258 1.344 2.822Zm-41.561 64.06c1.121.376 2.577.094 3.249-1.035.448-.94 0-2.257-1.232-2.822-1.121-.376-2.689 0-3.361 1.129-.448.941 0 1.975 1.344 2.728Zm-56.236-11.006c1.12.376 2.689 0 3.361-1.035.448-.94 0-2.257-1.232-2.822-1.121-.376-2.689 0-3.361 1.035-.224 1.035.112 2.352 1.232 2.822Zm-89.507-75.253a2.92 2.92 0 0 0 1.896.081c.62-.186 1.127-.57 1.409-1.069a1.78 1.78 0 0 0 .096-1.592c-.22-.52-.678-.946-1.273-1.183a2.92 2.92 0 0 0-1.895-.081c-.62.185-1.127.57-1.41 1.069a1.78 1.78 0 0 0-.096 1.592c.221.52.679.946 1.273 1.183Zm186.632-76.288c1.12.376 2.689 0 3.361-1.035.448-.94 0-2.258-1.345-2.822-1.12-.377-2.576 0-3.248 1.129-.448.94.224 2.07 1.232 2.727ZM61.096 80.5c.672.282 1.12.188 1.904-.094.784-.376 1.232-.753 1.68-1.505 1.793-2.916 3.697-5.456 5.602-8.466.672-1.223.448-2.822-.897-3.293-1.344-.47-2.8.189-3.584 1.6-1.905 2.916-3.585 5.644-5.601 8.466l-.225.188c-.672 1.317 0 2.728 1.12 3.104Z"/><path fill="#C44E32" d="m58.071 73.258 5.825 2.257a14.56 14.56 0 0 1 2.801 1.223l2.128 1.035c.752.241 1.499.492 2.24.752.561 0 1.233-.282 1.793-.752.56-.47.672-.94.56-1.6 0-.47-.224-.94-.784-1.41s-1.232-.753-1.792-1.129l-1.569-.659c-.896-.282-1.68-.94-2.576-1.222l-6.05-2.258c-1.12-.47-2.576-.094-3.248.94-1.12.941-.672 2.352.672 2.823ZM51.91 12.114c.336.094.896.094.896-.094.112-.188.112-.658 0-.752l-1.008.094c0 .188 0 .658.224.752h-.112Zm9.634 21.354c.224.093.784.093.896 0 0-.283 0-.753-.224-.847-.224 0-.672 0-.784.188v.659h.112ZM.154 27.729c.225.095.785 0 .897-.094l-.112-.752-.896.094.112.752Zm.673 27.092c.224.094.784 0 .896-.094 0-.189 0-.659-.224-.753l-.784.094c-.112.188-.112.659 0 .753h.112Zm258.775 169.038c1.569.658 3.361.188 4.033-1.129.784-1.317.224-2.822-1.344-3.481-1.456-.564-3.361-.188-4.033 1.129-.784 1.317-.224 2.822 1.344 3.481ZM41.604 19.828c.672.188 1.344 0 1.68-.565.336-.564 0-1.128-.56-1.317a1.395 1.395 0 0 0-1.68.47c-.337.565.112 1.224.56 1.412Zm122.33 65.752c.56.283 1.12 0 1.568-.47.224-.564 0-1.129-.672-1.41-.672-.283-1.344 0-1.568.563-.336.565 0 1.035.56 1.317h.112ZM289.401 232.89c.808.314 1.682.49 2.572.518a7.883 7.883 0 0 0 2.612-.355 7.039 7.039 0 0 0 2.245-1.174 5.768 5.768 0 0 0 1.533-1.811c1.568-2.822.448-6.114-3.137-7.525a7.899 7.899 0 0 0-5.156-.201 7.06 7.06 0 0 0-2.251 1.145 5.82 5.82 0 0 0-1.555 1.784c-1.344 2.822-.224 6.302 3.137 7.525v.094Zm81.553 26.339c1.793.752 3.921.188 4.817-1.505.785-1.505.224-3.293-1.792-4.139a4.214 4.214 0 0 0-2.883-.111 3.71 3.71 0 0 0-1.237.675 3.012 3.012 0 0 0-.809 1.035c-.56 1.599.224 3.198 1.904 4.045ZM270.133 148.982l.224.94a3.858 3.858 0 0 0 1.344 1.693l1.568.941 1.457 1.129c1.12.658 2.24 1.411 3.136 2.163l2.913 1.882c.672.282 1.232.752 1.904 1.129l2.017 1.128a37.362 37.362 0 0 0 3.473 1.788 5.982 5.982 0 0 0 2.867.509 5.753 5.753 0 0 0 2.734-.886c1.008-.658 1.344-1.034 1.904-1.881.448-.564.56-1.223.784-1.881a5.63 5.63 0 0 0 .336-1.505v-4.61l.112-1.223v-3.856c0-1.129 0-2.164-.224-3.293l-.112-1.505c-.112-.564-.224-1.128-.56-1.693-.336-.752-.896-1.411-1.68-1.975a6.06 6.06 0 0 0-2.689-1.129 8.663 8.663 0 0 0-3.136.282c-1.009.282-1.905.753-2.913 1.129l-2.016 1.129-1.121.564-1.008.565-2.352.94-1.681.565a10.73 10.73 0 0 0-1.68.752l-.224.188-.784.377-.56.376-1.121.658-1.344 1.129-.336.376c-.35.364-.615.778-.784 1.223v-.188l-.448 1.223v.941-.094Zm17.587 4.421-2.128-1.317a106.928 106.928 0 0 1-5.041-3.575l.112-.094 1.568-.564 1.793-.659 2.688-1.223 1.569-.94.448-.094v3.668l.112 1.411v4.045l-1.121-.658Z"/></svg>
